X:1
T:[ID 1-77b]
T:[ID 1-77b]
T:Bezeichnung standardisiert: Menuett Menuet
T:Urheber unbekannt Datum in der hier transkribierten schriftlichen Quelle: vermutlich vor 1767
C:Urheber unbekannt
C:Datum in der hier transkribierten schriftlichen Quelle: vermutlich vor 1767
L:1/8
M:3/4
K:D
V:1 treble 
V:1
 d2 d'2 d'2 | d'2 a4 | faAdfa | g4 f2 |"^O)" fa^gb a2 |"^O)" fa^gb a2 | (3fed c2 B2 | A6 :: %8
 (3AB=c c4 | BGDB, G,2 | (3B"^\201"cd d4 | cAEC A,2 | dfeg f2 |S dfeg f2 | A2 B2 c2 | d6 :| %16

